react/assets/icons/repeat.svg

<svg role="img" xmlns="http://www.w3.org/2000/svg" width="48px" height="48px" viewBox="0 0 24 24" aria-labelledby="repeatIconTitle" stroke-linecap="square" stroke-linejoin="miter" fill="none"> <title id="repeatIconTitle">Repeat</title> <path d="M2 13.0399V11C2 7.68629 4.68629 5 8 5H21V5"/> <path d="M19 2L22 5L19 8"/> <path d="M22 9.98004V12.02C22 15.3337 19.3137 18.02 16 18.02H3V18.02"/> <path d="M5 21L2 18L5 15"/> </svg>

<svg xmlns="http://www.w3.org/2000/svg" width="48" height="48" viewBox="0 0 24 24" aria-labelledby="repeatIconTitle" stroke-linecap="square" fill="none"><path d="M2 13.04V11a6 6 0 016-6h13"/><path d="M19 2l3 3-3 3M22 9.98v2.04a6 6 0 01-6 6H3"/><path d="M5 21l-3-3 3-3"/></svg>
